X:1
T:Rimsky-Korsakov Harmonic Exercises, Modulations (4)
T:Rimsky-Korsakov Harmonic Exercises, Modulations (4)
T:Realizations by S. Shchetnikov
T:"Practical Manual of Harmony" (1885)
C:Realizations by S. Shchetnikov
%%score { ( 1 2 ) | ( 3 4 ) }
L:1/8
Q:1/2=80
M:2/2
K:C
V:1 treble nm="Piano" snm="Pno."
V:2 treble 
V:3 bass 
V:4 bass 
V:1
"""^Example by Rimsky-Korsakov (C -- d -- F -- C):""_C:""_d:""_{""^Periods with modulation and return to key (8 measures)" c4 _B4 | %1
"""_d:""_F:""_{" A4"" d4 |"""" c8- |"" c4"" _B4 |"""_F:""_C:""_{" A4 =B4 | c4 e4 | f8 | e8 |] %8
[K:Bb] z4"""^Exercises: own compositions.\n\nRealization (B♭ -- g -- B♭):\n\n""_B♭:" B4 | %9
"" e4"" c4 |"""_B♭:""_g:""_{" d4 c4 | B4 c4 | A4 B4 |"""_B♭:""_g:""_{" B4"" c4 |"" d4"" e4 | %15
"" d4"""" c4 |"" B8 |][K:Eb]"""^Realization (c -- f -- c):""_c:""_{" c4"" d4 |"" e4"" c4 | %19
"" =B4"""_c:""_f:" c4 | c4 G4 | F4 G4 |"""_f:""_c:""_{" A4 f4 |"" e4"""" d4 |"" c8 |] %25
[K:G]"""^Realization (G -- a -- G):""_G:""_{" G4"" B4 |"" c4"" d4 |"" B4"""_G:""_a:" G4 | D4 D4 | %29
 E4 B4 | A4 ^G4 |"""_a:""_G:""_{" A4"" c4 |"" B8 |] %33
V:2
"""" G8 |"" F8 | E8 | F4 C4 |"" F4"" G4 |"" G4"" c4- |"" c4"" B4 |"" c8 |][K:Bb] z4 F4 | E4 F4 | %10
"" F4"" ^F4 |"" G4"" G4 |"" ^F4"" G4 |"" G4 _G4 | F4 E4 | F6 E2 | D8 |][K:Eb] G8 | G8 |"" G8 | %20
"" G4 =E4 |"" F4"" =E4 |"" F4 A4 | G6 F2 | E8 |][K:G] D4 G4 | A4 A4 | G4"" D4 |"" D4"" D4 | %29
"" B,4"" E4 |"" E4"" E4 |"" E4 ^F4 | G8 |] %33
V:3
 E8 | F4 D4 | G,8 | F,4 E,4 | C4 D4 | C4 G4 | F4 D4 | C8 |][K:Bb] z4 D4 | B,4 C4 | B,4 D4 | D4 E4 | %12
 D4 D4 | E4 E4 | D4 B,4 | B,4 A,4 | F,8 |][K:Eb] E4 D4 | C8 | D4 E4 | =E4 C4 | C8 | C8 | C4 =B,4 | %24
 C8 |][K:G] B,4 D4 | E4 D4 | D4 B,4 | A,4 A,4 | ^G,4 G,4 | A,4 B,4 | C4 D4 | D8 |] %33
V:4
 C,4 ^C,4 | D,4 _B,,4 | C,4 _B,,4 | A,,4 G,,4 | F,,4 F,4 | E,4 C,4 | A,,4 G,,4 | C,8 |] %8
[K:Bb] z4 B,,4 | G,,4 A,,4 | B,,4 A,,4 | G,,4 C,4 | D,4 G,4 | E,4 E,4 | B,,4 _G,4 | F,4 F,,4 | %16
 B,,8 |][K:Eb] C,4 =B,,4 | C,4 E,4 | G,4 C4 | B,8 | A,4 G,4 | F,8 | G,4 G,,4 | C,8 |] %25
[K:G] G,4 G,4 | G,4 F,4 | G,4 G,4 | =F,4 F,4 | E,4 D,4 | C,4 B,,4 | A,,4 D,4 | G,,8 |] %33

